Newaita/actions/32/object-rotate-right.svg

<svg height="32" viewBox="0 0 32 32" width="32" xmlns="http://www.w3.org/2000/svg"><g fill="#424242"><path d="m26.460938 2.894531c1.464843 0 2.644531 1.183594 2.644531 2.648438v9.261719c0 1.464843-1.179688 2.644531-2.644531 2.644531h-5.292969c-1.464844 0-2.644531-1.179688-2.644531-2.644531v-9.261719c0-1.464844 1.179687-2.648438 2.644531-2.648438zm0 0"/><path d="m2.644531 21.417969c0-1.464844 1.183594-2.644531 2.648438-2.644531h9.261719c1.464843 0 2.644531 1.179687 2.644531 2.644531v5.292969c0 1.464843-1.179688 2.644531-2.644531 2.644531h-9.261719c-1.464844 0-2.648438-1.179688-2.648438-2.644531zm2.648438 1.324219v2.644531c0 .734375.589843 1.324219 1.320312 1.324219h6.617188c.734375 0 1.324219-.589844 1.324219-1.324219v-2.644531c0-.734376-.589844-1.324219-1.324219-1.324219h-6.617188c-.730469 0-1.320312.589843-1.320312 1.324219zm0 0"/><path d="m15.875 8.789062v3.0625c-1.707031 1.109376-3.164062 2.566407-4.273438 4.273438h-3.0625c1.628907-3.136719 4.199219-5.707031 7.335938-7.335938zm0 0"/></g></svg>

<?xml version="1.0" encoding="UTF-8"?>
<svg xmlns="http://www.w3.org/2000/svg" xmlns:xlink="http://www.w3.org/1999/xlink" width="32px" height="32px" viewBox="0 0 32 32" version="1.1">
<g id="surface1">
<path style=" stroke:none;fill-rule:nonzero;fill:rgb(25.882354%,25.882354%,25.882354%);fill-opacity:1;" d="M 26.460938 2.894531 C 27.925781 2.894531 29.105469 4.078125 29.105469 5.542969 L 29.105469 14.804688 C 29.105469 16.269531 27.925781 17.449219 26.460938 17.449219 L 21.167969 17.449219 C 19.703125 17.449219 18.523438 16.269531 18.523438 14.804688 L 18.523438 5.542969 C 18.523438 4.078125 19.703125 2.894531 21.167969 2.894531 Z M 26.460938 2.894531 "/>
<path style=" stroke:none;fill-rule:nonzero;fill:rgb(25.882354%,25.882354%,25.882354%);fill-opacity:1;" d="M 2.644531 21.417969 C 2.644531 19.953125 3.828125 18.773438 5.292969 18.773438 L 14.554688 18.773438 C 16.019531 18.773438 17.199219 19.953125 17.199219 21.417969 L 17.199219 26.710938 C 17.199219 28.175781 16.019531 29.355469 14.554688 29.355469 L 5.292969 29.355469 C 3.828125 29.355469 2.644531 28.175781 2.644531 26.710938 Z M 5.292969 22.742188 L 5.292969 25.386719 C 5.292969 26.121094 5.882812 26.710938 6.613281 26.710938 L 13.230469 26.710938 C 13.964844 26.710938 14.554688 26.121094 14.554688 25.386719 L 14.554688 22.742188 C 14.554688 22.007812 13.964844 21.417969 13.230469 21.417969 L 6.613281 21.417969 C 5.882812 21.417969 5.292969 22.007812 5.292969 22.742188 Z M 5.292969 22.742188 "/>
<path style=" stroke:none;fill-rule:nonzero;fill:rgb(25.882354%,25.882354%,25.882354%);fill-opacity:1;" d="M 15.875 8.789062 L 15.875 11.851562 C 14.167969 12.960938 12.710938 14.417969 11.601562 16.125 L 8.539062 16.125 C 10.167969 12.988281 12.738281 10.417969 15.875 8.789062 Z M 15.875 8.789062 "/>
</g>
</svg>
